X:1
T:Praeludium 2
T:Praeludium 2
T:(Prelude) BWV 926
T:Johann Sebastian Bach
C:Johann Sebastian Bach
%%score 1 2
L:1/8
M:3/4
K:Dmin
V:1 treble 
V:2 bass 
V:1
 DAFDAF | DAFDAF | DBGDBG | DBGDBG | ^CGECGE | ^CBGEAG | FDFAFA | dAdfdf | (=bfedc=B) | A^G^FEd=B | %10
 M[Ac]2 z2 z2 | M[Ac]2 z2 z2 | (a_edc_BA) | G^F=EDcA | PBdBG g2 | z dcBMAG | AcAF f2 | z cBAMGF | %18
 GBAGFE | FDFAdG | P[A^c]ecAec | Ae^cA_BA | Ge^cGec | Ge^cGAG | FdBFdB | FdBFdB | ^F=cAFcA | %27
 ^FcAFcA | BG^FGDG | BGDBGD | _EG^FGBG | _EBGEBG | ^CBGCBG | ^CBGCAG | =FAFDAF | DAFD^CD | %36
 EGEB,GE | B,EG^CA,G | F/D/=C/B,/ A,/ x/ x x2 | x4 x2 | x2 x/ D/F/A/ D/F/A/d/ | %41
 f/a/f/d/ f/d/=B/d/ ^G/B/A/G/ | [Ae=g]3 a [Adf-]2 | fe M[^ce]3 d | d=cAdBG | cA^FBGE | A^FDGE^C | %47
 P[A,D^F]6 |] %48
V:2
 PD,2 z2 z2 | D,,2 z2 z2 | PD,2 z2 z2 | D,,2 z2 z2 | PD,2 z2 z2 | D,,2 z2 z2 | D,A,,D,F,D,F, | %7
 A,F,A,DA,D | ^G,2 z2 z2 | E,2 ^G,2 E,2 | A,ECA,EC | =G,_ECG,EC | ^F,2 z2 z2 | D,2 ^F,2 D,2 | %14
 PG,2 z2 z =F, | ME,2 z2 z2 | PF,2 z2 z E, | D,2 z F,E,D, | E,D,^C,E,D,C, | D,2 =C,2 B,,2 | %20
 A,,2 A,2 A,,2 | A,,2 A,2 A,,2 | A,,2 A,2 A,,2 | A,,2 A,2 A,,2 | B,,2 z2 z2 | B,,2 B,2 B,,2 | %26
 A,,2 z2 z2 | A,,2 D,2 D,,2 | G,,2 z2 z2 | G,,2 G,2 G,,2 | G,,2 z2 z2 | G,,2 G,2 G,,2 | %32
 A,,2 z2 z2 | A,,2 A,2 A,,2 | A,,2 z2 z2 | A,,2 A,2 A,,2 | ^C,,2 z2 z2 | ^C,,2 ^C,2 C,,2 | %38
 D,,2 x/ G,/F,/E,/ F,/A,/D,/F,/ | A,,/ D,/C,/B,,/ A,,/ G,,/F,,/E,,/ D,,/F,,/A,,/D,/ | %40
 F,/A,/ D,/F,/ A,/ x/ x x2 | z6 | ^C,E,C,A,, D,/=C,/_B,,/A,,/ | G,,G,A,G,A,A,, | D,2 D2 D,2 | %45
 D,2 z2 z2 | D,,2 D,2 D,,2 | D,,6 |] %48

